!!!!SEGMENT: Snf0117-Ecce_concipies_et_paries_filium.krn
!!!id: Snf0117
!!!AGN: Motet
!!!voices: 4
!!!COM: Ludwig Senfl
!!!OTL: Ecce concipies et paries filium
**kern	**text	**kern	**text	**kern	**text	**kern	**text
*part4	*part4	*part3	*part3	*part2	*part2	*part1	*part1
*staff4	*staff4	*staff3	*staff3	*staff2	*staff2	*staff1	*staff1
*I"Bassus	*	*I"Tenor	*	*I"Altus	*	*I"Superius	*
*I'B	*	*I'T	*	*I'A	*	*I'S	*
*clefF4	*	*clefGv2	*	*clefGv2	*	*clefG2	*
*k[b-]	*	*k[b-]	*	*k[b-]	*	*k[b-]	*
*F:	*	*F:	*	*F:	*	*F:	*
*M2/1	*	*M2/1	*	*M2/1	*	*M2/1	*
*met(C2)	*	*met(C2)	*	*met(C2)	*	*met(C2)	*
!!section: Prima pars: Ecce concipies et paries filium
!!!OMD: Prima pars: Ecce concipies et paries filium
0r	.	0r	.	0r	.	0f	Ec-
=1	=1	=1	=1	=1	=1	=1	=1
0r	.	0F	Ec-	0r	.	0a	-ce
=2	=2	=2	=2	=2	=2	=2	=2
0F	Ec-	0A	-ce	0r	.	1.cc	.
.	.	.	.	.	.	2b-y	.
=3	=3	=3	=3	=3	=3	=3	=3
0A	-ce	0c	.	0r	.	2.a	.
.	.	.	.	.	.	4g	.
.	.	.	.	.	.	1a	.
=4	=4	=4	=4	=4	=4	=4	=4
1.c	.	0r	.	0c	Ec-	1g	.
.	.	.	.	.	.	1g	con-
2B-y	.	.	.	.	.	.	.
=5	=5	=5	=5	=5	=5	=5	=5
2.A	.	0r	.	0e	-ce	1a	.
4G	.	.	.	.	.	.	.
1A	.	.	.	.	.	1cc	-ci-
=6	=6	=6	=6	=6	=6	=6	=6
0G	con-	0r	.	1.g	.	1.b-y	.
.	.	.	.	2f	.	2a	.
=7	=7	=7	=7	=7	=7	=7	=7
0C	.	0r	.	2.e	.	1g	.
.	.	.	.	4d	.	.	.
.	.	.	.	1e	.	1cc	-pi-
=8	=8	=8	=8	=8	=8	=8	=8
1.G	.	0r	.	1d	.	1.b-y	.
.	.	.	.	2B-y	con-	.	.
2F	.	.	.	[2c	.	2a	.
=9	=9	=9	=9	=9	=9	=9	=9
2.E	-ci-	1r	.	2c]	.	1g	-es,
.	.	.	.	2B-y	.	.	.
4D	.	.	.	.	.	.	.
1E	-pi-	1c	con-	1G	.	1gg	con-
=10	=10	=10	=10	=10	=10	=10	=10
0D	-es,	1d	.	0A	-ci-	1.ff	-ci-
.	.	[1f	-ci-	.	.	.	.
.	.	.	.	.	.	2ee	.
=11	=11	=11	=11	=11	=11	=11	=11
1BB-y	con-	1f]	.	1B-y	-pi-	1dd	-pi-
1C	.	1e	.	2.G	.	1cc	.
.	.	.	.	4A	.	.	.
=12	=12	=12	=12	=12	=12	=12	=12
0D	.	0d	-pi-	2B-y	.	2b-y	-es,
.	.	.	.	1c	.	1a	.
.	.	.	.	2B-y	.	4g	.
.	.	.	.	.	.	4f	.
=13	=13	=13	=13	=13	=13	=13	=13
1.A	-ci-	0c	.	2.c	-es,	1e	con-
.	.	.	.	4d	.	.	.
.	.	.	.	[1e	.	2.a	.
2AA	-pi-	.	.	.	.	.	.
.	.	.	.	.	.	4b-y	.
=14	=14	=14	=14	=14	=14	=14	=14
0AA	-es,	0c	-es	2e]	.	2cc	.
.	.	.	.	2f	.	2a	-ci-
.	.	.	.	2e	.	2.cc	-pi-
.	.	.	.	[2f	con-	.	.
.	.	.	.	.	.	4b-y	.
=15	=15	=15	=15	=15	=15	=15	=15
0D	.	1r	.	4f]	.	4a	.
.	.	.	.	4e	.	4g	.
.	.	.	.	4d	.	4f	.
.	.	.	.	4c	.	4e	.
.	.	1F	et	1d	.	1f	.
=16	=16	=16	=16	=16	=16	=16	=16
[0C	.	1.c	pa-	1e	-ci-	0g	-es,
.	.	.	.	2.c	.	.	.
.	.	2B-y	-ri-	.	.	.	.
.	.	.	.	4d	.	.	.
=17	=17	=17	=17	=17	=17	=17	=17
0C]	.	1A	-es	2e	.	1r	.
.	.	.	.	2.f	.	.	.
.	.	1G	.	.	.	2r	.
.	.	.	.	4e	.	.	.
.	.	.	.	4e	.	2cc	con-
.	.	.	.	8dL	.	.	.
.	.	.	.	8eJ	.	.	.
=18	=18	=18	=18	=18	=18	=18	=18
1D	.	1F	.	2f	.	2a	-ci-
.	.	.	.	1d	-pi-	2b-y	.
1AA	.	1E	.	.	.	1cc	.
.	.	.	.	2c	.	.	.
=19	=19	=19	=19	=19	=19	=19	=19
1r	.	1G	fi-	2B-y	-es,	2dd	-pi-
.	.	.	.	4A	.	4cc	.
.	.	.	.	4G	.	4b-y	.
1D	con-	1A	.	2F	.	1a	.
.	.	.	.	2f	con-	.	.
=20	=20	=20	=20	=20	=20	=20	=20
1G	.	0B-y	.	2e-X	-ci-	1g	-es,
.	.	.	.	2d	.	.	.
1E-X	-ci-	.	.	2.e-i	.	2r	.
.	.	.	.	.	.	2g	con-
.	.	.	.	8dL	.	.	.
.	.	.	.	8cJ	.	.	.
=21	=21	=21	=21	=21	=21	=21	=21
1F	.	0A	.	2c	.	2.a	-ci-
.	.	.	.	1d	.	.	.
.	.	.	.	.	.	8gL	.
.	.	.	.	.	.	8fJ	.
1D	.	.	.	.	.	1f	.
.	.	.	.	4c	.	.	.
.	.	.	.	4B-y	.	.	.
=22	=22	=22	=22	=22	=22	=22	=22
0E-i	-pi-	[0G	-li-	1B-y	-pi-	4g	.
.	.	.	.	.	.	4a	.
.	.	.	.	.	.	4b-y	.
.	.	.	.	.	.	4a	.
.	.	.	.	1c	.	4g	.
.	.	.	.	.	.	4f	.
.	.	.	.	.	.	[2g	-pi-
=23	=23	=23	=23	=23	=23	=23	=23
1BB-y	-es	0G]	.	1d	-es,	2g]	.
.	.	.	.	.	.	1f	.
1C	.	.	.	1c	.	.	.
.	.	.	.	.	.	2e	.
=24	=24	=24	=24	=24	=24	=24	=24
1r	.	0F	.	2r	.	[0f	-es
.	.	.	.	2c	con-	.	.
1F	et	.	.	2d	.	.	.
.	.	.	.	[2c	-ci-	.	.
=25	=25	=25	=25	=25	=25	=25	=25
0c	pa-	0F	-um,	4c]	.	0f]	.
.	.	.	.	4B-y	.	.	.
.	.	.	.	4A	.	.	.
.	.	.	.	4G	.	.	.
.	.	.	.	1A	.	.	.
=26	=26	=26	=26	=26	=26	=26	=26
0B-y	-ri-	0r	.	4G	-pi-	1r	.
.	.	.	.	4A	.	.	.
.	.	.	.	4B-y	.	.	.
.	.	.	.	4c	.	.	.
.	.	.	.	4d	.	1f	et
.	.	.	.	4e	.	.	.
.	.	.	.	[2f	.	.	.
=27	=27	=27	=27	=27	=27	=27	=27
0A	-es	0r	.	2f]	.	0cc	pa-
.	.	.	.	4e	.	.	.
.	.	.	.	4d	.	.	.
.	.	.	.	2e	-es	.	.
.	.	.	.	2c	et	.	.
=28	=28	=28	=28	=28	=28	=28	=28
0G	.	0r	.	0g	pa-	0b-y	-ri-
=29	=29	=29	=29	=29	=29	=29	=29
2.D	.	1r	.	0f	-ri-	0a	-es
4E	.	.	.	.	.	.	.
4F	.	1F	et	.	.	.	.
4D	.	.	.	.	.	.	.
2F	.	.	.	.	.	.	.
=30	=30	=30	=30	=30	=30	=30	=30
*M3/3%2	*	*	*	*	*	*M3/3%2	*
*met(3)	*	*	*	*	*	*met(3)	*
*Xtuplet	*	*	*	*	*	*Xtuplet	*
3%2.C	fi-	0c	pa-	0e	-es	3%2.g	fi-
3D	.	.	.	.	.	3f	.
3E	.	.	.	.	.	3g	.
3F	.	.	.	.	.	3a	.
=31	=31	=31	=31	=31	=31	=31	=31
3G	.	0B-y	-ri-	3%4d	.	3b-y	.
3A	.	.	.	.	.	3a	.
3B-y	.	.	.	.	.	3g	.
3c	.	.	.	.	.	3f	.
3%2d	.	.	.	3%2G	.	3%2g	.
=32	=32	=32	=32	=32	=32	=32	=32
*	*	*	*	*M3/3%2	*	*	*
*	*	*	*	*met(3)	*	*	*
*	*	*	*	*Xtuplet	*	*	*
3%2.D	.	0A	-es	3%2.d	fi-	3%2a	.
.	.	.	.	.	.	3%2dd	.
3C	.	.	.	3e	.	.	.
3AA	.	.	.	3%2f	.	[3%2cc	.
3BB-y	.	.	.	.	.	.	.
=33	=33	=33	=33	=33	=33	=33	=33
3%2C	.	0G	.	3%2e	.	3%2cc]	.
3%2.GG	.	.	.	3%2.d	.	3%4b-y	.
3AA	.	.	.	3c	.	.	.
=34	=34	=34	=34	=34	=34	=34	=34
3BB-y	.	0F	.	3d	.	3%2b-y	-li-
3C	.	.	.	3e	.	.	.
3D	.	.	.	3f	.	3%2a	.
3AA	.	.	.	3c	.	.	.
3%2D	-li-	.	.	3%2d	-li-	3%2f	-um,
=35	=35	=35	=35	=35	=35	=35	=35
*tuplet	*	*	*	*tuplet	*	*tuplet	*
*M2/1	*	*	*	*M2/1	*	*M2/1	*
*met(C2)	*	*	*	*met(C2)	*	*met(C2)	*
[0C	-um,	0E	.	1G	-um,	1.g	fi-
.	.	.	.	[1g	fi-	.	.
.	.	.	.	.	.	2f	.
=36	=36	=36	=36	=36	=36	=36	=36
0C]	.	1G	fi-	1g]	.	1e	.
.	.	1A	.	1c	.	1e	-li-
=37	=37	=37	=37	=37	=37	=37	=37
1BB-y	fi-	[0B-y	.	1f	-li-	1d	.
[1E-X	.	.	.	[1e-X	.	[1g	.
=38	=38	=38	=38	=38	=38	=38	=38
1E-]	.	1B-]	.	2e-]	.	1g]	.
.	.	.	.	2d	.	.	.
1F	-li-	1A	.	2.c	-um,	[1f	.
.	.	.	.	4B-y	.	.	.
=39	=39	=39	=39	=39	=39	=39	=39
0C	-um,	0G	-li-	1c	.	2f]	.
.	.	.	.	.	.	4e	.
.	.	.	.	.	.	4d	.
.	.	.	.	2r	.	1e	.
.	.	.	.	2c	et	.	.
=40	=40	=40	=40	=40	=40	=40	=40
2r	.	0F	.	2A	vo-	0f	-um,
2.D	et	.	.	4B-y	-ca-	.	.
.	.	.	.	4A	.	.	.
.	.	.	.	4B-y	.	.	.
4C	.	.	.	4A	.	.	.
4D	.	.	.	[2d	.	.	.
4E	.	.	.	.	.	.	.
=41	=41	=41	=41	=41	=41	=41	=41
1F	.	0F	-um,	2d]	.	1r	.
.	.	.	.	2c	.	.	.
1BB-y	.	.	.	2d	-bis,	1f	et
.	.	.	.	[2f	vo-	.	.
=42	=42	=42	=42	=42	=42	=42	=42
2r	.	0r	.	4f]	.	1a	vo-
.	.	.	.	4e	.	.	.
2.F	vo-	.	.	4f	.	.	.
.	.	.	.	4g	.	.	.
.	.	.	.	2a	.	1cc	.
4E	.	.	.	.	.	.	.
4F	.	.	.	[2f	-ca-	.	.
4G	.	.	.	.	.	.	.
=43	=43	=43	=43	=43	=43	=43	=43
1A	-ca-	[0F	et	4f]	.	1cc	-ca-
.	.	.	.	4e	.	.	.
.	.	.	.	2c	.	.	.
1D	-bis,	.	.	[1f	-bis,	1dd	.
=44	=44	=44	=44	=44	=44	=44	=44
2r	.	0F]	.	1f]	.	1cc	.
2.A	vo-	.	.	.	.	.	.
.	.	.	.	2r	.	1cc	-bis,
4G	.	.	.	.	.	.	.
4A	.	.	.	[2f	et	.	.
4B-y	.	.	.	.	.	.	.
=45	=45	=45	=45	=45	=45	=45	=45
1c	-ca-	0A	vo-	2f]	.	0r	.
.	.	.	.	2e	vo-	.	.
1F	-bis	.	.	2.f	.	.	.
.	.	.	.	4F	.	.	.
=46	=46	=46	=46	=46	=46	=46	=46
1r	.	0c	.	2F	.	1r	.
.	.	.	.	2.A	-ca-	.	.
2r	.	.	.	.	.	2r	.
.	.	.	.	4G	.	.	.
[2F	no-	.	.	4A	.	[2a	vo-
.	.	.	.	4B-y	.	.	.
=47	=47	=47	=47	=47	=47	=47	=47
4F]	.	0c	-ca-	2c	.	4a]	.
4E	.	.	.	.	.	4g	.
4F	.	.	.	2F	.	4a	.
4G	.	.	.	.	.	4b-y	.
1A	.	.	.	2f	.	1cc	-ca-
.	.	.	.	2e	.	.	.
=48	=48	=48	=48	=48	=48	=48	=48
2.B-y	-men	0d	.	2d	-bis,	1f	-bis,
.	.	.	.	2A	et	.	.
4BB-y	.	.	.	.	.	.	.
2BB-y	.	.	.	1B-y	vo-	2r	.
2B-y	e-	.	.	.	.	[2f	vo-
=49	=49	=49	=49	=49	=49	=49	=49
2A	.	0c	.	1f	.	4f]	.
.	.	.	.	.	.	4g	.
1F	.	.	.	.	.	4a	.
.	.	.	.	.	.	4b-y	.
.	.	.	.	1f	-ca-	4cc	.
.	.	.	.	.	.	4f	.
4E	.	.	.	.	.	[2ff	.
4D	.	.	.	.	.	.	.
=50	=50	=50	=50	=50	=50	=50	=50
1C	-ius,	0c	-bis,	1g	.	2ff]	.
.	.	.	.	.	.	2ee	-ca-
1F	.	.	.	1f	.	1ff	-bis
=51	=51	=51	=51	=51	=51	=51	=51
0r	.	2r	.	2f	-bis,	0cc	no-
.	.	2f	et	2a	et	.	.
.	.	2e	vo-	2g	vo-	.	.
.	.	[2f	-ca-	[2a	-ca-	.	.
=52	=52	=52	=52	=52	=52	=52	=52
0r	.	2f]	.	2a]	.	0cc	-men
.	.	4e	.	4g	.	.	.
.	.	4d	.	4f	.	.	.
.	.	1e	.	1g	.	.	.
=53	=53	=53	=53	=53	=53	=53	=53
2r	.	2d	.	0G	-bis	0dd	.
2B-y	no-	4G	.	.	.	.	.
.	.	4A	.	.	.	.	.
2G	-men	4B-y	.	.	.	.	.
.	.	4c	.	.	.	.	.
[2B-y	e-	[2d	.	.	.	.	.
=54	=54	=54	=54	=54	=54	=54	=54
4B-]	.	4d]	.	1r	.	0dd	e-
4A	.	4c	.	.	.	.	.
4G	.	4B-y	.	.	.	.	.
4F	.	4A	.	.	.	.	.
1G	-ius,	1B-y	-bis	[1g	no-	.	.
=55	=55	=55	=55	=55	=55	=55	=55
2r	.	0c	no-	1g]	.	2cc	.
2C	no-	.	.	.	.	2g	.
2.C	-men	.	.	[1g	-men	2cc	.
.	.	.	.	.	.	[2cc	-ius,
4D	.	.	.	.	.	.	.
=56	=56	=56	=56	=56	=56	=56	=56
2E	.	0c	-men	1g]	.	4cc]	.
.	.	.	.	.	.	4dd	.
2C	e-	.	.	.	.	2ee	.
1F	-ius,	.	.	[1a	.	2cc	.
.	.	.	.	.	.	[2ff	no-
=57	=57	=57	=57	=57	=57	=57	=57
2D	no-	0d	.	1a]	.	2ff]	.
2.D	-men	.	.	.	.	2dd	-men
.	.	.	.	[1a	e-	2.dd	e-
4E	.	.	.	.	.	.	.
2F	.	.	.	.	.	.	.
.	.	.	.	.	.	4ee	.
=58	=58	=58	=58	=58	=58	=58	=58
2D	e-	0d	e-	1a]	.	4ff	.
.	.	.	.	.	.	4ee	.
2F	.	.	.	.	.	4dd	.
.	.	.	.	.	.	4cc	.
1G	-ius	.	.	[1g	.	1b-y	.
=59	=59	=59	=59	=59	=59	=59	=59
2r	.	0c	.	1g]	.	1cc	-ius,
1C	Je-	.	.	.	.	.	.
.	.	.	.	[1e	.	2r	.
2AA	.	.	.	.	.	[2cc	Je-
=60	=60	=60	=60	=60	=60	=60	=60
1AA	-sum,	0A	.	1e]	.	2cc]	.
.	.	.	.	.	.	2a	.
[1D	Je-	.	.	[1f	.	1a	-sum,
=61	=61	=61	=61	=61	=61	=61	=61
2D]	.	0B-y	.	1f]	.	1.dd	Je-
2BB-y	.	.	.	.	.	.	.
2BB-y	.	.	.	[1d	-ius	.	.
2GG	.	.	.	.	.	2b-y	.
=62	=62	=62	=62	=62	=62	=62	=62
1GG	-sum,	0G	-ius	1d]	.	2b-y	.
.	.	.	.	.	.	2g	.
1C	.	.	.	[1c	.	1g	-sum,
=63	=63	=63	=63	=63	=63	=63	=63
0r	.	0F	.	1c]	.	2r	.
.	.	.	.	.	.	2.a	Je-
.	.	.	.	2r	.	.	.
.	.	.	.	.	.	4b-y	.
.	.	.	.	2f	Je-	4cc	.
.	.	.	.	.	.	4a	.
=64	=64	=64	=64	=64	=64	=64	=64
0r	.	[0G	Je-	2d	.	2b-y	.
.	.	.	.	4e	.	2.g	.
.	.	.	.	4d	.	.	.
.	.	.	.	4e	.	.	.
.	.	.	.	4f	.	4a	.
.	.	.	.	2g	.	4b-y	.
.	.	.	.	.	.	4cc	.
=65	=65	=65	=65	=65	=65	=65	=65
0r	.	0G_	.	2d	.	2dd	.
.	.	.	.	4g	.	4ee	.
.	.	.	.	4f	.	4dd	.
.	.	.	.	4g	.	4ee	.
.	.	.	.	4a	.	4ff	.
.	.	.	.	[2b-y	.	[2gg	.
=66	=66	=66	=66	=66	=66	=66	=66
0r	.	0G_	.	4b-]	.	4gg]	.
.	.	.	.	4a	.	4ff	.
.	.	.	.	4g	.	4ee	.
.	.	.	.	4f	.	4dd	.
.	.	.	.	2.g	.	2ee	.
.	.	.	.	.	.	[2dd	.
.	.	.	.	4f	.	.	.
=67	=67	=67	=67	=67	=67	=67	=67
0r	.	0G]	.	2e	.	4dd]	.
.	.	.	.	.	.	4cc	.
.	.	.	.	4d	.	1cc	.
.	.	.	.	4c	.	.	.
.	.	.	.	1d	.	.	.
.	.	.	.	.	.	2bnXi	.
=68	=68	=68	=68	=68	=68	=68	=68
2r	.	[0A	.	2c	-sum,	0cc	-sum,
2.AA	Je-	.	.	2f	Je-	.	.
.	.	.	.	1e	.	.	.
4BB-y	.	.	.	.	.	.	.
2C	.	.	.	.	.	.	.
=69	=69	=69	=69	=69	=69	=69	=69
2D	.	0A_	.	1d	.	2r	.
2.F	.	.	.	.	.	2f	Je-
.	.	.	.	2c	.	2.a	.
4E	.	.	.	.	.	.	.
[2D	.	.	.	2d	.	.	.
.	.	.	.	.	.	4g	.
=70	=70	=70	=70	=70	=70	=70	=70
2D]	.	0A_	.	2A	.	4a	.
.	.	.	.	.	.	4b-y	.
2C	.	.	.	2e	.	2cc	.
1D	-sum,	.	.	2d	.	2f	.
.	.	.	.	2f	.	[2a	.
=71	=71	=71	=71	=71	=71	=71	=71
0AA	Je-	0A]	.	2e	.	2a]	.
.	.	.	.	1d	.	2f	.
.	.	.	.	.	.	1e	.
.	.	.	.	2c#i	.	.	.
=72	=72	=72	=72	=72	=72	=72	=72
1.BB-y	.	[0F	.	2d	-sum,	0d	-sum,
.	.	.	.	2B-y	Je-	.	.
.	.	.	.	1f	.	.	.
2C	.	.	.	.	.	.	.
=73	=73	=73	=73	=73	=73	=73	=73
2D	.	0F_	.	2F	.	1r	.
2BB-y	.	.	.	1B-y	.	.	.
[1D	.	.	.	.	.	[1f	Je-
.	.	.	.	2A	.	.	.
=74	=74	=74	=74	=74	=74	=74	=74
2D]	.	0F_	.	1d	.	2f]	.
2E	.	.	.	.	.	2g	.
2F	.	.	.	2c	.	2a	.
2D	.	.	.	[2f	.	[2dd	.
=75	=75	=75	=75	=75	=75	=75	=75
1F	-sum.	0F]	.	4f]	.	4dd]	.
.	.	.	.	4e	.	4cc	.
.	.	.	.	2c	.	1cc	.
1BB-y	.	.	.	1d	-sum,	.	.
.	.	.	.	.	.	2b-y	.
=76	=76	=76	=76	=76	=76	=76	=76
[0Fl	.	[0Fl	-sum.	2r	.	1cc	-sum,
.	.	.	.	2c	Je-	.	.
.	.	.	.	2d	.	2.f	Je-
.	.	.	.	[2f	.	.	.
.	.	.	.	.	.	4g	.
=77	=77	=77	=77	=77	=77	=77	=77
0F_	.	0F_	.	2f]	.	1.a	.
.	.	.	.	4e	.	.	.
.	.	.	.	4d	.	.	.
.	.	.	.	2c	.	.	.
.	.	.	.	2d	.	2f	.
=78	=78	=78	=78	=78	=78	=78	=78
00F]	.	00F]	.	00c	-sum.	00f	-sum.
=79||	=79||	=79||	=79||	=79||	=79||	=79||	=79||
*M2/1	*	*M2/1	*	*M2/1	*	*M2/1	*
*met(C|)	*	*met(C|)	*	*met(C|)	*	*met(C|)	*
!!section: Secunda pars: Hic erit magnus
!!!OMD: Secunda pars: Hic erit magnus
0C	Hic	0r	.	0r	.	0r	.
=80	=80	=80	=80	=80	=80	=80	=80
1AA	e-	0r	.	0r	.	0r	.
1BB-y	.	.	.	.	.	.	.
=81	=81	=81	=81	=81	=81	=81	=81
1C	-rit	0r	.	0c	Hic	0r	.
[1F	ma-	.	.	.	.	.	.
=82	=82	=82	=82	=82	=82	=82	=82
2F]	.	0r	.	1A	e-	0r	.
2E	.	.	.	.	.	.	.
1D	.	.	.	1B-y	.	.	.
=83	=83	=83	=83	=83	=83	=83	=83
2C	-gnus,	0r	.	1c	-rit	0cc	Hic
2.F	hic	.	.	.	.	.	.
.	.	.	.	[1f	ma-	.	.
4E	.	.	.	.	.	.	.
4F	.	.	.	.	.	.	.
4G	.	.	.	.	.	.	.
=84	=84	=84	=84	=84	=84	=84	=84
4A	.	0r	.	2f]	.	1a	e-
4B-y	.	.	.	.	.	.	.
2c	.	.	.	2e	.	.	.
1G	e-	.	.	1d	.	1b-y	.
=85	=85	=85	=85	=85	=85	=85	=85
2A	.	0c	Hic	2.c	.	0cc	-rit
2.F	-rit	.	.	.	.	.	.
.	.	.	.	4B-y	.	.	.
.	.	.	.	2A	.	.	.
4E	.	.	.	.	.	.	.
2C	.	.	.	2G	.	.	.
=86	=86	=86	=86	=86	=86	=86	=86
0D	ma-	1A	e-	1F	-gnus,	0ff	ma-
.	.	1B-y	.	2r	.	.	.
.	.	.	.	2F	ma-	.	.
=87	=87	=87	=87	=87	=87	=87	=87
1C	.	0c	-rit	1G	.	0ee	.
1AA	.	.	.	1A	.	.	.
=88	=88	=88	=88	=88	=88	=88	=88
0BB-y	.	0f	ma-	1F	.	0dd	.
.	.	.	.	1B-y	.	.	.
=89	=89	=89	=89	=89	=89	=89	=89
1C	-gnus,	0e	.	1G	.	0cc	.
2r	.	.	.	1g	.	.	.
2C	ma-	.	.	.	.	.	.
=90	=90	=90	=90	=90	=90	=90	=90
4D	.	1d	.	1f	-gnus,	2.a	.
4E	.	.	.	.	.	.	.
4F	.	.	.	.	.	.	.
4G	.	.	.	.	.	4b-y	.
2A	.	2c	.	2r	.	2cc	-gnus,
2G	.	2B-y	.	2g	ma-	[2dd	ma-
=91	=91	=91	=91	=91	=91	=91	=91
1A	-gnus,	1c	.	2f	.	4dd]	.
.	.	.	.	.	.	4cc	.
.	.	.	.	2e	.	1cc	.
2r	.	1d	.	1f	-gnus,	.	.
2D	ma-	.	.	.	.	2bnXi	.
=92	=92	=92	=92	=92	=92	=92	=92
2.A	.	[0c	-gnus,	2r	.	2.cc	.
.	.	.	.	2e	ma-	.	.
4G	.	.	.	.	.	4b-y	.
4F	.	.	.	1f	.	4a	.
4E	.	.	.	.	.	4g	.
[2F	.	.	.	.	.	[2a	.
=93	=93	=93	=93	=93	=93	=93	=93
2F]	.	0c]	.	1F	-gnus,	2a]	.
4E	.	.	.	.	.	4g	.
4D	.	.	.	.	.	4f	.
1C	.	.	.	1G	.	1e	.
=94	=94	=94	=94	=94	=94	=94	=94
1BB-y	-gnus	0F	et	1d	ma-	2f	.
.	.	.	.	.	.	1b-y	.
1r	.	.	.	1c	.	.	.
.	.	.	.	.	.	2a	.
=95	=95	=95	=95	=95	=95	=95	=95
1BB-y	et	[0B-y	Fi-	2B-y	.	1b-y	-gnus,
.	.	.	.	2F	-gnus	.	.
1E-X	Fi-	.	.	4G	.	2r	.
.	.	.	.	4A	.	.	.
.	.	.	.	4B-y	.	[2g	et
.	.	.	.	4c	.	.	.
=96	=96	=96	=96	=96	=96	=96	=96
1D	.	0B-]	.	1d	.	2g]	.
.	.	.	.	.	.	2f	.
1E-i	-li-	.	.	1G	.	1g	.
=97	=97	=97	=97	=97	=97	=97	=97
1F	.	[0A	.	2r	.	2.a	Fi-
.	.	.	.	2c	et	.	.
.	.	.	.	.	.	4b-y	.
1F	-us	.	.	2.c	Fi-	4cc	.
.	.	.	.	.	.	4dd	.
.	.	.	.	.	.	[2cc	.
.	.	.	.	4d	.	.	.
=98	=98	=98	=98	=98	=98	=98	=98
1r	.	0A]	.	2e	.	4cc]	.
.	.	.	.	.	.	4b-y	.
.	.	.	.	2e	-li-	4a	.
.	.	.	.	.	.	4g	.
1F	Al-	.	.	1f	-us,	1a	.
=99	=99	=99	=99	=99	=99	=99	=99
1G	.	0B-y	-li-	2r	.	2g	-li-
.	.	.	.	2d	et	1b-y	.
1G	-tis-	.	.	2d	Fi-	.	.
.	.	.	.	2e	-li-	4a	.
.	.	.	.	.	.	4g	.
=100	=100	=100	=100	=100	=100	=100	=100
1F	.	0c	.	1f	-us	1a	-us
1E	-si-	.	.	1r	.	1g	.
=101	=101	=101	=101	=101	=101	=101	=101
1F	.	0c	-us	2r	.	2r	.
.	.	.	.	1a	Al-	2f	Al-
1F	-mi,	.	.	.	.	2cc	-tis-
.	.	.	.	4g	.	2cc	-si-
.	.	.	.	4f	.	.	.
=102	=102	=102	=102	=102	=102	=102	=102
1r	.	0c	Al-	2e	.	1g	-mi,
.	.	.	.	2c	.	.	.
2r	.	.	.	2g	-tis-	1r	.
2C	Al-	.	.	2g	-si-	.	.
=103	=103	=103	=103	=103	=103	=103	=103
2G	-tis-	0d	.	2d	-mi,	2r	.
2G	-si-	.	.	1g	Al-	2g	Al-
[1D	-mi,	.	.	.	.	2dd	-tis-
.	.	.	.	4f	.	2dd	-si-
.	.	.	.	4e	.	.	.
=104	=104	=104	=104	=104	=104	=104	=104
1D]	.	0d	-tis-	1f	.	1a	-mi,
2r	.	.	.	2B-y	-ti-	1r	.
2BB-y	[Al-	.	.	2f	-si-	.	.
=105	=105	=105	=105	=105	=105	=105	=105
2F	-tis-	0c	.	2f	-mi,	2r	.
2F	-si-	.	.	2.c	Al-	2f	Al-
1C	-mi,]	.	.	.	.	2cc	-tis-
.	.	.	.	4d	.	.	.
.	.	.	.	2e-X	.	2cc	-si-
=106	=106	=106	=106	=106	=106	=106	=106
1r	.	0B-y	-si-	2.E-X	.	2g	-mi,
.	.	.	.	.	.	2e-X	Al-
.	.	.	.	4F	.	.	.
2r	.	.	.	1G	.	2b-y	-tis-
2GG	[Al-	.	.	.	.	2b-y	-si-
=107	=107	=107	=107	=107	=107	=107	=107
2D	-tis-	0A	.	2D	-ti-	2f	-mi,
2D	-si-	.	.	1d	.	2.a	Al-
1AA	-mi]	.	.	.	.	.	.
.	.	.	.	.	.	4b-y	.
.	.	.	.	2c	-si-	2cc	.
=108	=108	=108	=108	=108	=108	=108	=108
0r	.	0B-y	.	1d	-mi,	2f	.
.	.	.	.	.	.	2.b-y	-tis-
.	.	.	.	2G	Al-	.	.
.	.	.	.	.	.	4a	.
.	.	.	.	2B-y	.	[2g	.
=109	=109	=109	=109	=109	=109	=109	=109
1r	.	0c	-mi	1A	.	2g]	.
.	.	.	.	.	.	2f#i	-si-
1C	vo-	.	.	2.G	.	1g	-mi
.	.	.	.	4A	.	.	.
=110	=110	=110	=110	=110	=110	=110	=110
1D	-ca-	1F	vo-	4B-y	.	0r	.
.	.	.	.	4A	.	.	.
.	.	.	.	1B-y	.	.	.
1E	.	1G	-ca-	.	.	.	.
.	.	.	.	[2c	.	.	.
=111	=111	=111	=111	=111	=111	=111	=111
1F	.	1A	.	2c]	.	0r	.
.	.	.	.	2F	.	.	.
1E	.	[1B-y	.	4G	-ti-	.	.
.	.	.	.	4A	.	.	.
.	.	.	.	4B-y	.	.	.
.	.	.	.	4c	.	.	.
=112	=112	=112	=112	=112	=112	=112	=112
1D	-bi-	1B-]	.	4d	.	0r	.
.	.	.	.	4e	.	.	.
.	.	.	.	1f	.	.	.
1C	.	1A	.	.	.	.	.
.	.	.	.	4e	.	.	.
.	.	.	.	4d	.	.	.
=113	=113	=113	=113	=113	=113	=113	=113
1C	-tur,	1G	-bi-	1e	-si-	2r	.
.	.	.	.	.	.	2g	vo-
1r	.	1F	.	1f	-mi	2a	.
.	.	.	.	.	.	[2cc	-ca-
=114	=114	=114	=114	=114	=114	=114	=114
2r	.	0F	-tur,	1r	.	4cc]	.
.	.	.	.	.	.	4b-y	.
2.c	vo-	.	.	.	.	4a	.
.	.	.	.	.	.	4g	.
.	.	.	.	1c	vo-	1f	.
4B-y	.	.	.	.	.	.	.
2A	.	.	.	.	.	.	.
=115	=115	=115	=115	=115	=115	=115	=115
2G	-ca-	0r	.	1d	-ca-	2g	.
2F	.	.	.	.	.	1a	.
1E	-bi-	.	.	1e	.	.	.
.	.	.	.	.	.	2g	.
=116	=116	=116	=116	=116	=116	=116	=116
0D	-tur,	1r	.	0f	.	2a	.
.	.	.	.	.	.	2b-y	.
.	.	1F	[vo-	.	.	2a	.
.	.	.	.	.	.	[2dd	.
=117	=117	=117	=117	=117	=117	=117	=117
0r	.	1G	-ca-	0e	.	2dd]	.
.	.	.	.	.	.	4cc	.
.	.	.	.	.	.	4b-y	.
.	.	1A	.	.	.	4cc	.
.	.	.	.	.	.	4b-y	.
.	.	.	.	.	.	4a	.
.	.	.	.	.	.	4g	.
=118	=118	=118	=118	=118	=118	=118	=118
1r	.	0B-y	.	0d	-bi-	2f	.
.	.	.	.	.	.	4B-y	.
.	.	.	.	.	.	4c	.
1BB-y	vo-	.	.	.	.	4d	.
.	.	.	.	.	.	4e	.
.	.	.	.	.	.	4f	.
.	.	.	.	.	.	4g	.
=119	=119	=119	=119	=119	=119	=119	=119
1F	-ca-	0A	.	0c	.	4a	.
.	.	.	.	.	.	4b-y	.
.	.	.	.	.	.	1a	.
1F	-bi-	.	.	.	.	.	.
.	.	.	.	.	.	4g	.
.	.	.	.	.	.	4f	.
=120	=120	=120	=120	=120	=120	=120	=120
0C	-tur,	0G	-bi-	0c	-tur,	2e	.
.	.	.	.	.	.	1f	.
.	.	.	.	.	.	2e	-bi-
=121	=121	=121	=121	=121	=121	=121	=121
2r	.	0F	.	2r	.	[0fl	-tur.
2D	vo-	.	.	2A	vo-	.	.
2D	-ca-	.	.	2d	-ca-	.	.
2D	-bi-	.	.	2d	-bi-	.	.
=122	=122	=122	=122	=122	=122	=122	=122
1F	-tur,	[0Fl	-tur.]	1c	-tur,	0f_	.
2r	.	.	.	2r	.	.	.
2BB-y	vo-	.	.	2B-y	vo-	.	.
=123	=123	=123	=123	=123	=123	=123	=123
2BB-y	-ca-	0F_	.	2B-y	-ca-	0f_	.
2BB-y	-bi-	.	.	2B-y	-bi-	.	.
[1D	-tur.	.	.	2A	-tur,	.	.
.	.	.	.	4D	vo-	.	.
.	.	.	.	4E	.	.	.
=124	=124	=124	=124	=124	=124	=124	=124
2D]	.	0F_	.	4F	.	0f_	.
.	.	.	.	4G	.	.	.
4C	.	.	.	4A	.	.	.
4BB-y	.	.	.	4B-y	.	.	.
2AA	.	.	.	4c	.	.	.
.	.	.	.	4A	.	.	.
2BB-y	.	.	.	[2d	-ca-	.	.
=125	=125	=125	=125	=125	=125	=125	=125
[0Fl	.	0F_	.	2d]	.	0f_	.
.	.	.	.	2c	-bi-	.	.
.	.	.	.	[1cl	-tur.	.	.
=126	=126	=126	=126	=126	=126	=126	=126
00F]	.	00F]	.	00c]	.	00f]	.
==	==	==	==	==	==	==	==
*-	*-	*-	*-	*-	*-	*-	*-
!!!system-decoration: [*]
!!!RDF**kern: i = editorial accidental
!!!RDF**kern: l = terminal long
!!!ENC: Benjamin Ory
!!!END: 2024/3/10
!!!EED: Benjamin Ory
!!!EEV: 2024/03/10
!!!YEC: Copyright 2024 Benjamin Ory, All Rights Reserved
!!!ONB: Translated from MusicXML on 2024/03/10
